assets/images/guide/getting-started/visual-language/bitcoin-symbol.svg

<?xml version="1.0" encoding="UTF-8"?>
<svg id="Vrstva_1" xmlns="http://www.w3.org/2000/svg" version="1.1" viewBox="0 0 144 145">
  <!-- Generator: Adobe Illustrator 29.4.0, SVG Export Plug-In . SVG Version: 2.1.0 Build 152)  -->
  <defs>
    <style>
      .st0 {
        fill: #fff;
      }

      .st1 {
        fill: #f7931a;
      }
    </style>
  </defs>
  <path class="st1" d="M141.845993,89.6650009c-9.6209869,38.5709915-48.6898956,62.0459976-87.2698898,52.4280014C16.0121002,132.4759979-7.46593,93.4079971,2.1570699,54.8390007,11.7711,16.2639999,50.8431015-7.2140098,89.4101028,2.4029901c38.5748978,9.6170104,62.0519028,48.6880095,52.4358902,87.2620108Z"/>
  <path class="st0" d="M48.3110008,84.375c-.3920021.9720001-1.3850021,2.4309998-3.6210022,1.8769989.0790024.1139984-5.7449989-1.4329987-5.7449989-1.4329987l-3.9199982,9.0410004,10.2799988,2.5629959c1.9109993.4790039,3.7879982.9790039,5.632,1.4530029l-3.2670021,13.1269989,7.8910027,1.9690018,3.2369995-12.9869995c2.1580009.5839996,4.25,1.125,6.2980003,1.6340027l-3.2260017,12.9259949,7.8999977,1.9690018,3.2700043-13.1019974c13.4729996,2.5479965,23.6039963,1.5199966,27.8659973-10.663002,3.4370041-9.8099976-.1699982-15.4690018-7.2579956-19.1600037,5.1609955-1.1899948,9.0509949-4.5859985,10.0879974-11.5979958,1.4329987-9.5820007-5.862999-14.7310028-15.8379974-18.1669998l3.2350006-12.9780006-7.8990021-1.9689999-3.151001,12.6359997c-2.0790024-.5180016-4.2099991-1.0060005-6.3310013-1.4890022l3.1709976-12.7199974-7.8939972-1.9690018-3.2389984,12.9760017-15.9309998-3.9459991-2.1020012,8.4369965s5.8610001,1.3430023,5.7369995,1.427002c3.2000008.7989998,3.7770004,2.9160004,3.6809998,4.5940018l-8.8639984,35.5519981ZM85.6869965,87.302002c-2.4440002,9.810997-18.9599991,4.5069962-24.317997,3.1759949l4.3380013-17.3889999c5.3549957,1.3350067,22.5299988,3.9810028,19.9799957,14.2130051ZM88.1269989,61.8499985c-2.2259979,8.9240036-15.9749985,4.3889999-20.4349976,3.2770004l3.9319992-15.7719994c4.4589996,1.1119995,18.8239975,3.1870003,16.5029984,12.4949989Z"/>
</svg>

<svg width="144" height="145" viewBox="0 0 144 145" fill="none" xmlns="http://www.w3.org/2000/svg">
<path d="M141.846 89.665C132.225 128.236 93.1561 151.711 54.5761 142.093C16.0121 132.476 -7.46593 93.408 2.15707 54.839C11.7711 16.264 50.8431 -7.21401 89.4101 2.40299C127.985 12.02 151.462 51.091 141.846 89.665Z" fill="#F7931A"/>
<path d="M103.736 61.991C105.169 52.409 97.873 47.26 87.898 43.824L91.133 30.846L83.234 28.877L80.083 41.513C78.004 40.995 75.873 40.507 73.752 40.024L76.923 27.304L69.029 25.335L65.79 38.311C64.071 37.919 62.384 37.533 60.745 37.125L60.753 37.085L49.859 34.365L47.757 42.802C47.757 42.802 53.618 44.145 53.494 44.229C56.694 45.028 57.271 47.145 57.175 48.823L53.49 63.608C53.71 63.665 53.995 63.744 54.311 63.872C54.047 63.806 53.766 63.735 53.477 63.665L48.311 84.375C47.919 85.347 46.926 86.806 44.69 86.252C44.769 86.366 38.945 84.819 38.945 84.819L35.025 93.86L45.305 96.423C47.216 96.902 49.093 97.402 50.937 97.876L47.67 111.003L55.561 112.972L58.798 99.985C60.956 100.569 63.048 101.11 65.096 101.619L61.87 114.545L69.77 116.514L73.04 103.412C86.513 105.96 96.644 104.932 100.906 92.749C104.343 82.939 100.736 77.28 93.648 73.589C98.809 72.399 102.699 69.003 103.736 61.991ZM85.687 87.302C83.243 97.113 66.727 91.809 61.369 90.478L65.707 73.089C71.062 74.424 88.237 77.07 85.687 87.302ZM88.127 61.85C85.901 70.774 72.152 66.239 67.692 65.127L71.624 49.355C76.083 50.467 90.448 52.542 88.127 61.85Z" fill="white"/>
</svg>
